X: 26644
T: Middle Eastern
R: polka
M: 2/4
K: Eminor
|:BG/E/ DE|GA B2|dc/B/ AF|GA/G/ FD|
BG/E/ DE|GA Be|ed BA|1 B2 B2:|2 B2 e>f||
ge fd|eg ed|BA/B/ ^cA|B2 E/F/G/A/|
Be ed|Bc/B/ AB|GA/G/ FE|D2 F2|
E>F GA|Be dB|bc'/b/ af|e2 e2|
gf/e/ df|Bc/B/ AB|GA/G/ FD|E2 E2||

